resources/icons/20px/send-backward.svg

<svg width="20" height="20" viewBox="0 0 20 20" fill="none" xmlns="http://www.w3.org/2000/svg">
<path d="M10.7071 19.7071C10.3166 20.0976 9.68342 20.0976 9.29289 19.7071L5.29289 15.7071C4.90237 15.3166 4.90237 14.6834 5.29289 14.2929C5.68342 13.9024 6.31658 13.9024 6.70711 14.2929L9 16.5858L9 11L1 11C0.447716 11 -4.82823e-08 10.5523 0 10C4.82823e-08 9.44771 0.447716 9 1 9L9 9V6L1 6C0.447716 6 3.01409e-07 5.55228 3.49691e-07 5L7.86805e-07 2C8.35087e-07 1.44772 0.447717 1 1 1L19 1C19.5523 1 20 1.44772 20 2V5C20 5.55229 19.5523 6 19 6L11 6V9L19 9C19.5523 9 20 9.44772 20 10C20 10.5523 19.5523 11 19 11L11 11L11 16.5858L13.2929 14.2929C13.6834 13.9024 14.3166 13.9024 14.7071 14.2929C15.0976 14.6834 15.0976 15.3166 14.7071 15.7071L10.7071 19.7071Z" fill="#5F6B7C"/>
<clipPath id="clip0_3729_26">
<rect width="20" height="20" fill="white"/>
</clipPath>
</svg>

<svg xmlns="http://www.w3.org/2000/svg" viewBox="0 0 20 20">
  <path d="M10.707 19.707a1 1 0 0 1-1.414 0l-4-4a1 1 0 1 1 1.414-1.414L9 16.586V11H1a1 1 0 1 1 0-2h8V6H1a1 1 0 0 1-1-1V2a1 1 0 0 1 1-1h18a1 1 0 0 1 1 1v3a1 1 0 0 1-1 1h-8v3h8a1 1 0 1 1 0 2h-8v5.586l2.293-2.293a1 1 0 0 1 1.414 1.414z"/>
</svg>
